www/assets/icons/whatshot.svg

<svg width="24" height="24" viewBox="0 0 24 24" xmlns="http://www.w3.org/2000/svg" fill='currentColor'><path d="M13.5 1.33496C13.5 1.33496 14.24 3.98496 14.24 6.13496C14.24 8.19496 12.89 9.86496 10.83 9.86496C8.76 9.86496 7.2 8.19496 7.2 6.13496L7.23 5.77496C5.21 8.17496 4 11.285 4 14.665C4 19.085 7.58 22.665 12 22.665C16.42 22.665 20 19.085 20 14.665C20 9.27496 17.41 4.46496 13.5 1.33496ZM11.71 19.665C9.93 19.665 8.49 18.265 8.49 16.525C8.49 14.905 9.54 13.765 11.3 13.405C13.07 13.045 14.9 12.195 15.92 10.825C16.31 12.115 16.51 13.475 16.51 14.865C16.51 17.515 14.36 19.665 11.71 19.665Z"/></svg>

<svg xmlns="http://www.w3.org/2000/svg" width="24" height="24" viewBox="0 0 24 24" fill='currentColor'><path d="M13.5 1.335s.74 2.65.74 4.8c0 2.06-1.35 3.73-3.41 3.73-2.07 0-3.63-1.67-3.63-3.73l.03-.36C5.21 8.175 4 11.285 4 14.665c0 4.42 3.58 8 8 8s8-3.58 8-8c0-5.39-2.59-10.2-6.5-13.33m-1.79 18.33c-1.78 0-3.22-1.4-3.22-3.14 0-1.62 1.05-2.76 2.81-3.12 1.77-.36 3.6-1.21 4.62-2.58.39 1.29.59 2.65.59 4.04 0 2.65-2.15 4.8-4.8 4.8"/></svg>
